X: 1
T: Bonnie Anne's
T: Follow Me Up To Carlow
M: 4/4
L: 1/8
R: reel
D: Angelina Carberry
K: Ador
ABAG EG~G2|AGAB cded|~c3A EFGB|1c Aage aAAG:|2 Aage aAAd||
egcg ecgc|BdGB dGBd|g2ec gcea|gedB BAAg|
agea gedB|cBcG EFGB|~A3G ABcd|eage aAAG||
